src/assets/her2.svg

<svg width="393" height="393" viewBox="0 0 393 393" fill="none" xmlns="http://www.w3.org/2000/svg">
<path d="M349.015 91.0566L273.361 166.71C276.946 175.95 278.916 185.994 278.916 196.499C278.916 219.252 269.689 239.856 254.774 254.772C239.858 269.688 219.254 278.915 196.501 278.915C185.996 278.915 175.951 276.944 166.712 273.359L91.0586 349.013C120.996 369.75 157.328 381.908 196.501 381.908C247.698 381.908 294.056 361.16 327.605 327.603C361.163 294.054 381.91 247.695 381.91 196.499C381.909 157.326 369.752 120.994 349.015 91.0566Z" fill="url(#paint0_linear_0_1939)"/>
<path d="M40.0046 273.205L0.407119 383.973C-1.50856 389.332 3.66671 394.509 9.02615 392.593L119.794 352.995C141.894 330.896 62.1035 251.106 40.0046 273.205Z" fill="url(#paint1_linear_0_1939)"/>
<path d="M253.513 219.289L119.793 352.995C117.608 349.21 114.289 345.86 110.036 343.486C104.225 340.268 95.1387 342.03 88.8476 343.938C87.4782 344.346 86.226 343.632 85.7167 342.54C85.5461 342.192 85.455 341.81 85.45 341.422C85.4449 341.034 85.526 340.65 85.6874 340.298C85.702 340.298 85.702 340.283 85.702 340.283C86.0486 339.488 86.3549 338.677 86.6198 337.851L86.9696 336.671C86.9843 336.642 86.9843 336.627 86.9843 336.599C87.3195 335.332 87.5522 334.065 87.6832 332.769C87.7271 332.347 87.7564 331.91 87.7849 331.488C87.8211 330.784 87.8281 330.08 87.805 329.377C87.6472 324.34 85.9642 319.47 82.9788 315.411C82.2253 314.382 81.3929 313.413 80.489 312.513C79.5892 311.608 78.6202 310.776 77.5908 310.022C72.8432 306.527 67.1347 304.925 61.514 305.217C61.0918 305.246 60.6548 305.275 60.2325 305.318C58.9364 305.449 57.6549 305.682 56.4027 306.017C56.3734 306.017 56.3588 306.017 56.3295 306.032L55.1497 306.382C54.7275 306.513 54.3198 306.658 53.9122 306.819C53.5192 306.964 53.1254 307.125 52.7324 307.3C52.7178 307.3 52.7178 307.3 52.7031 307.314C52.3505 307.476 51.9664 307.557 51.5786 307.552C51.1908 307.547 50.809 307.456 50.4607 307.285C49.3688 306.776 48.6552 305.523 49.0629 304.154C50.9708 297.863 52.7324 288.791 49.5144 282.981C47.1402 278.714 43.8059 275.393 40.0054 273.21L173.712 139.489C179.74 133.475 189.497 133.475 195.512 139.489L206.885 150.862L242.14 186.118L253.513 197.491C259.527 203.504 259.527 213.26 253.513 219.289Z" fill="url(#paint2_linear_0_1939)"/>
<path d="M242.14 186.116L85.7169 342.54C85.5464 342.191 85.4553 341.809 85.4502 341.422C85.4451 341.034 85.5262 340.65 85.6876 340.297C85.7022 340.297 85.7023 340.283 85.7023 340.283C86.0521 339.482 87.5663 334.05 87.6827 332.769C87.7412 332.332 87.7697 331.909 87.7844 331.487C88.0757 325.866 86.4736 320.158 82.979 315.41C82.2256 314.381 81.3931 313.412 80.4892 312.512C79.5895 311.608 78.6205 310.775 77.591 310.021C72.8434 306.527 67.1349 304.925 61.5143 305.216C61.092 305.231 60.6697 305.26 60.2328 305.318C58.9379 305.436 57.6562 305.67 56.4029 306.017C56.3737 306.017 56.359 306.017 56.3297 306.031C55.9367 306.133 53.1264 307.123 52.7326 307.298C52.718 307.298 52.718 307.298 52.7033 307.313C52.3508 307.475 51.9667 307.556 51.5788 307.551C51.191 307.546 50.8092 307.454 50.4609 307.284L206.884 150.86L242.14 186.116Z" fill="url(#paint3_linear_0_1939)"/>
<path d="M22.7667 370.234C18.7065 366.168 14.04 362.758 8.93388 360.123L0.408095 383.974C-1.50759 389.333 3.66768 394.509 9.02712 392.593L32.8776 384.067C30.2434 378.96 26.8325 374.294 22.7667 370.234Z" fill="url(#paint4_linear_0_1939)"/>
<path d="M380.528 12.4733L219.063 173.939L195.443 150.319C190.295 145.171 190.295 136.823 195.443 131.675L209.57 117.548C212.589 114.529 214.984 110.945 216.618 107C218.252 103.056 219.093 98.8276 219.093 94.5579V76.9538C219.093 63.104 227.866 50.7746 240.951 46.2359L372.988 0.436713C380.297 -2.09929 385.998 7.00213 380.528 12.4733Z" fill="url(#paint5_linear_0_1939)"/>
<path d="M380.528 12.473L219.062 173.938L242.682 197.557C247.83 202.706 256.178 202.706 261.326 197.557L275.453 183.431C278.472 180.412 282.056 178.017 286.001 176.383C289.945 174.749 294.173 173.908 298.443 173.908H316.046C329.896 173.908 342.226 165.135 346.764 152.05L392.564 20.0124C395.1 12.7034 385.998 7.00179 380.528 12.473Z" fill="url(#paint6_linear_0_1939)"/>
<path d="M304.455 96.1276L385.557 15.0247C387.576 13.0058 387.816 9.71923 385.931 7.57391C385.448 7.02147 384.856 6.57418 384.193 6.25978C383.529 5.94538 382.808 5.77055 382.075 5.74613C381.341 5.72171 380.61 5.84822 379.927 6.11782C379.244 6.38743 378.624 6.79437 378.105 7.31345L297.062 88.357C291.756 93.6633 284.403 96.5684 276.928 95.908C270.013 95.2977 262.868 97.9154 257.939 103.764C250.953 112.052 251.064 124.414 258.182 132.588C266.728 142.402 281.631 142.787 290.676 133.742C295.413 129.006 297.561 122.663 297.125 116.468C296.592 108.92 299.104 101.478 304.455 96.1276Z" fill="url(#paint7_linear_0_1939)"/>
<path d="M217.723 103.885C216.178 109.044 213.377 113.738 209.57 117.547L195.443 131.674C190.295 136.822 190.295 145.17 195.443 150.318L219.063 173.937L242.682 197.557C247.83 202.705 256.178 202.705 261.326 197.557L275.453 183.43C279.261 179.623 283.956 176.821 289.115 175.277L217.723 103.885Z" fill="url(#paint8_linear_0_1939)"/>
<path d="M233.739 239.063L153.938 159.261L185.74 127.458C189.424 123.774 195.395 123.774 199.078 127.458L265.542 193.922C269.225 197.605 269.225 203.577 265.542 207.259L233.739 239.063Z" fill="url(#paint9_linear_0_1939)"/>
<defs>
<linearGradient id="paint0_linear_0_1939" x1="276.105" y1="276.103" x2="220.09" y2="220.089" gradientUnits="userSpaceOnUse">
<stop stop-color="#843561" stop-opacity="0"/>
<stop offset="1" stop-color="#3A2F4D"/>
</linearGradient>
<linearGradient id="paint1_linear_0_1939" x1="9.28153" y1="303.71" x2="89.0722" y2="383.501" gradientUnits="userSpaceOnUse">
<stop stop-color="#FFE0EA"/>
<stop offset="1" stop-color="#FFC0D5"/>
</linearGradient>
<linearGradient id="paint2_linear_0_1939" x1="40.0054" y1="243.987" x2="258.023" y2="243.987" gradientUnits="userSpaceOnUse">
<stop stop-color="#FFCE47"/>
<stop offset="1" stop-color="#FF9356"/>
</linearGradient>
<linearGradient id="paint3_linear_0_1939" x1="179.407" y1="279.808" x2="98.8585" y2="199.259" gradientUnits="userSpaceOnUse">
<stop stop-color="#FFCE47"/>
<stop offset="1" stop-color="#FF9356"/>
</linearGradient>
<linearGradient id="paint4_linear_0_1939" x1="9.91435" y1="378.052" x2="30.2736" y2="398.411" gradientUnits="userSpaceOnUse">
<stop stop-color="#2F73A0"/>
<stop offset="1" stop-color="#174461"/>
</linearGradient>
<linearGradient id="paint5_linear_0_1939" x1="283.486" y1="68.9021" x2="293.993" y2="86.1636" gradientUnits="userSpaceOnUse">
<stop stop-color="#EDF5FF"/>
<stop offset="1" stop-color="#C7E9FF"/>
</linearGradient>
<linearGradient id="paint6_linear_0_1939" x1="310.17" y1="102.116" x2="324.429" y2="127.633" gradientUnits="userSpaceOnUse">
<stop stop-color="#EDF5FF"/>
<stop offset="1" stop-color="#C7E9FF"/>
</linearGradient>
<linearGradient id="paint7_linear_0_1939" x1="337.112" y1="85.0488" x2="312.626" y2="60.5626" gradientUnits="userSpaceOnUse">
<stop stop-color="#2F73A0"/>
<stop offset="1" stop-color="#174461"/>
</linearGradient>
<linearGradient id="paint8_linear_0_1939" x1="244.337" y1="148.533" x2="230.96" y2="161.91" gradientUnits="userSpaceOnUse">
<stop stop-color="#7ACBFF" stop-opacity="0"/>
<stop offset="1" stop-color="#2F73A0"/>
</linearGradient>
<linearGradient id="paint9_linear_0_1939" x1="219.266" y1="168.061" x2="198.442" y2="201.507" gradientUnits="userSpaceOnUse">
<stop stop-color="#2F73A0"/>
<stop offset="1" stop-color="#174461"/>
</linearGradient>
</defs>
</svg>

<svg width="393" height="393" fill="none" xmlns="http://www.w3.org/2000/svg"><path d="m349.015 91.057-75.654 75.653a82.175 82.175 0 0 1 5.555 29.789c0 22.753-9.227 43.357-24.142 58.273-14.916 14.916-35.52 24.143-58.273 24.143a82.172 82.172 0 0 1-29.789-5.556l-75.653 75.654c29.937 20.737 66.269 32.895 105.442 32.895 51.197 0 97.555-20.748 131.104-54.305 33.558-33.549 54.305-79.908 54.305-131.104-.001-39.173-12.158-75.505-32.895-105.442z" fill="url(#a)"/><path d="M40.005 273.205.407 383.973c-1.916 5.359 3.26 10.536 8.62 8.62l110.767-39.598c22.1-22.099-57.69-101.889-79.79-79.79z" fill="url(#b)"/><path d="m253.513 219.289-133.72 133.706c-2.185-3.785-5.504-7.135-9.757-9.509-5.811-3.218-14.897-1.456-21.188.452-1.37.408-2.622-.306-3.131-1.398a2.617 2.617 0 0 1-.03-2.242c.015 0 .015-.015.015-.015.347-.795.653-1.606.918-2.432l.35-1.18c.014-.029.014-.044.014-.072.336-1.267.568-2.534.7-3.83.043-.422.072-.859.1-1.281a24.886 24.886 0 0 0-4.806-16.077 24.594 24.594 0 0 0-2.489-2.898 24.502 24.502 0 0 0-2.898-2.491 24.922 24.922 0 0 0-16.077-4.805c-.422.029-.86.058-1.282.101a24.261 24.261 0 0 0-3.83.699c-.029 0-.043 0-.072.015l-1.18.35c-.422.131-.83.276-1.238.437-.393.145-.787.306-1.18.481-.014 0-.014 0-.029.014a2.612 2.612 0 0 1-2.242-.029c-1.092-.509-1.806-1.762-1.398-3.131 1.908-6.291 3.67-15.363.451-21.173-2.374-4.267-5.708-7.588-9.509-9.771l133.707-133.721c6.028-6.014 15.785-6.014 21.8 0l11.373 11.373 35.255 35.256 11.373 11.373c6.014 6.013 6.014 15.769 0 21.798z" fill="url(#c)"/><path d="M242.14 186.116 85.717 342.54a2.627 2.627 0 0 1-.03-2.243c.015 0 .015-.014.015-.014.35-.801 1.864-6.233 1.98-7.514.06-.437.088-.86.102-1.282a24.93 24.93 0 0 0-4.805-16.077 24.585 24.585 0 0 0-2.49-2.898 24.934 24.934 0 0 0-18.975-7.296c-.422.015-.844.044-1.281.102a21.75 21.75 0 0 0-3.83.699c-.03 0-.044 0-.073.014-.393.102-3.204 1.092-3.597 1.267-.015 0-.015 0-.03.015a2.612 2.612 0 0 1-2.242-.029L206.884 150.86l35.256 35.256z" fill="url(#d)"/><path d="M22.767 370.234a55.543 55.543 0 0 0-13.833-10.111L.408 383.974c-1.916 5.359 3.26 10.535 8.62 8.619l23.85-8.526a55.509 55.509 0 0 0-10.111-13.833z" fill="url(#e)"/><path d="M380.528 12.473 219.063 173.94l-23.62-23.62c-5.148-5.148-5.148-13.496 0-18.644l14.127-14.127a32.511 32.511 0 0 0 9.523-22.99V76.954c0-13.85 8.773-26.18 21.858-30.718L372.988.436c7.309-2.535 13.01 6.566 7.54 12.037z" fill="url(#f)"/><path d="M380.528 12.473 219.062 173.938l23.62 23.619c5.148 5.149 13.496 5.149 18.644 0l14.127-14.126a32.511 32.511 0 0 1 22.99-9.523h17.603c13.85 0 26.18-8.773 30.718-21.858l45.8-132.038c2.536-7.309-6.566-13.01-12.036-7.539z" fill="url(#g)"/><path d="m304.455 96.128 81.102-81.103c2.019-2.02 2.259-5.306.374-7.451a5.359 5.359 0 0 0-7.826-.26l-81.043 81.043c-5.306 5.306-12.659 8.211-20.134 7.551-6.915-.61-14.06 2.007-18.989 7.856-6.986 8.288-6.875 20.65.243 28.824 8.546 9.814 23.449 10.199 32.494 1.154 4.737-4.736 6.885-11.079 6.449-17.274-.533-7.548 1.979-14.99 7.33-20.34z" fill="url(#h)"/><path d="M217.723 103.885a32.524 32.524 0 0 1-8.153 13.662l-14.127 14.127c-5.148 5.148-5.148 13.496 0 18.644l23.62 23.619 23.619 23.62c5.148 5.148 13.496 5.148 18.644 0l14.127-14.127a32.507 32.507 0 0 1 13.662-8.153l-71.392-71.392z" fill="url(#i)"/><path d="m233.739 239.063-79.801-79.802 31.802-31.803a9.43 9.43 0 0 1 13.338 0l66.464 66.464c3.683 3.683 3.683 9.655 0 13.337l-31.803 31.804z" fill="url(#j)"/><defs><linearGradient id="a" x1="276.105" y1="276.103" x2="220.09" y2="220.089" gradientUnits="userSpaceOnUse"><stop stop-color="#843561" stop-opacity="0"/><stop offset="1" stop-color="#3A2F4D"/></linearGradient><linearGradient id="b" x1="9.282" y1="303.71" x2="89.072" y2="383.501" gradientUnits="userSpaceOnUse"><stop stop-color="#FFE0EA"/><stop offset="1" stop-color="#FFC0D5"/></linearGradient><linearGradient id="c" x1="40.005" y1="243.987" x2="258.023" y2="243.987" gradientUnits="userSpaceOnUse"><stop stop-color="#FFCE47"/><stop offset="1" stop-color="#FF9356"/></linearGradient><linearGradient id="d" x1="179.407" y1="279.808" x2="98.859" y2="199.259" gradientUnits="userSpaceOnUse"><stop stop-color="#FFCE47"/><stop offset="1" stop-color="#FF9356"/></linearGradient><linearGradient id="e" x1="9.914" y1="378.052" x2="30.274" y2="398.411" gradientUnits="userSpaceOnUse"><stop stop-color="#2F73A0"/><stop offset="1" stop-color="#174461"/></linearGradient><linearGradient id="f" x1="283.486" y1="68.902" x2="293.993" y2="86.164" gradientUnits="userSpaceOnUse"><stop stop-color="#EDF5FF"/><stop offset="1" stop-color="#C7E9FF"/></linearGradient><linearGradient id="g" x1="310.17" y1="102.116" x2="324.429" y2="127.633" gradientUnits="userSpaceOnUse"><stop stop-color="#EDF5FF"/><stop offset="1" stop-color="#C7E9FF"/></linearGradient><linearGradient id="h" x1="337.112" y1="85.049" x2="312.626" y2="60.563" gradientUnits="userSpaceOnUse"><stop stop-color="#2F73A0"/><stop offset="1" stop-color="#174461"/></linearGradient><linearGradient id="i" x1="244.337" y1="148.533" x2="230.96" y2="161.91" gradientUnits="userSpaceOnUse"><stop stop-color="#7ACBFF" stop-opacity="0"/><stop offset="1" stop-color="#2F73A0"/></linearGradient><linearGradient id="j" x1="219.266" y1="168.061" x2="198.442" y2="201.507" gradientUnits="userSpaceOnUse"><stop stop-color="#2F73A0"/><stop offset="1" stop-color="#174461"/></linearGradient></defs></svg>
